X: 23073
T: Laugh And Be Fat
R: jig
M: 6/8
K: Amajor
|:E|ABA ABA|FDD D3|BcB BcB|GEE E2 E/2E/2|
ABA ABA|DFA f3|ecA ABA|cAA A2:|
|:c|fga agf|ece a2e|Bcd dcB|GEE E2 E/2E/2|
CEA cAc|ece a2f|ecA BAB|cAA A2:|

